icons/1_Primary/Migadu.svg

<svg width="1024" height="1024" fill="none" xmlns="http://www.w3.org/2000/svg"><g clip-path="url(#a)"><path d="M512 1024c282.77 0 512-229.23 512-512S794.77 0 512 0 0 229.23 0 512s229.23 512 512 512Z" fill="#728DBE"/><path d="m773.78 601.3-.06-41.11A154.548 154.548 0 0 0 620 406h-1a153.81 153.81 0 0 0-60 12.24l-.4-.2c-5.71-80.21-72.75-143.52-154.37-143.38A154.55 154.55 0 0 0 250 425.75l.13 63.64v2.91c.06 21.77.09 37.24.11 54.63v8C249 631.67 303 713 405 715.33h.15l.22-94-.54-.06v-.35a52.05 52.05 0 0 1-3.87-.14c-10.3-1.47-19.26-4.08-26.81-7.86-15.57-9-26.62-26.91-29.51-44-1.73-50.1 36.31-69.35 59.94-68.45 39 1.47 62.33 32 60.2 70.86l.22 143.9 94.41-.17-.28-154.48c0-2 .093-4 .28-6a60.467 60.467 0 0 1 2-10.83 59.566 59.566 0 0 1 30.62-36.93 62.453 62.453 0 0 1 14.25-5.09 68.468 68.468 0 0 1 8-1.3h8.74a60.696 60.696 0 0 1 56.17 59.2l.28 155.25 94.41-.17c-.02-23.61 0-41.77-.1-113.41ZM344.33 500.9a22.333 22.333 0 0 1-20.655-13.748 22.33 22.33 0 1 1 42.945-8.622 22.341 22.341 0 0 1-22.29 22.37Z" fill="#fff"/></g><defs><clipPath id="a"><path fill="#fff" d="M0 0h1024v1024H0z"/></clipPath></defs></svg>

<svg width="1024" height="1024" viewBox="0 0 1024 1024" fill="none" xmlns="http://www.w3.org/2000/svg">
<g clip-path="url(#clip0_2_2811)">
<path d="M512 1024C794.77 1024 1024 794.77 1024 512C1024 229.23 794.77 0 512 0C229.23 0 0 229.23 0 512C0 794.77 229.23 1024 512 1024Z" fill="#728DBE"/>
<path d="M773.78 601.3L773.72 560.19C773.626 519.407 757.415 480.314 728.62 451.431C699.826 422.549 660.783 406.219 620 406H619C598.382 406.017 577.977 410.18 559 418.24L558.6 418.04C552.89 337.83 485.85 274.52 404.23 274.66C363.889 274.733 325.175 290.578 296.358 318.808C267.54 347.039 250.903 385.419 250 425.75L250.13 489.39V492.3C250.19 514.07 250.22 529.54 250.24 546.93V554.93C249 631.67 303 713 405 715.33H405.15L405.37 621.33L404.83 621.27V620.92C403.497 620.92 402.207 620.873 400.96 620.78C390.66 619.31 381.7 616.7 374.15 612.92C358.58 603.92 347.53 586.01 344.64 568.92C342.91 518.82 380.95 499.57 404.58 500.47C443.58 501.94 466.91 532.47 464.78 571.33L465 715.23L559.41 715.06L559.13 560.58C559.13 558.58 559.223 556.58 559.41 554.58C559.746 550.917 560.415 547.292 561.41 543.75C563.675 535.808 567.566 528.423 572.837 522.066C578.109 515.708 584.645 510.516 592.03 506.82C596.556 504.552 601.341 502.843 606.28 501.73C608.919 501.139 611.59 500.705 614.28 500.43H623.02C638.065 501.552 652.154 508.237 662.538 519.182C672.923 530.127 678.859 544.546 679.19 559.63L679.47 714.88L773.88 714.71C773.86 691.1 773.88 672.94 773.78 601.3ZM344.33 500.9C339.914 500.908 335.594 499.606 331.917 497.159C328.241 494.712 325.373 491.23 323.675 487.152C321.978 483.075 321.527 478.586 322.381 474.253C323.235 469.92 325.355 465.937 328.472 462.809C331.589 459.68 335.564 457.546 339.894 456.677C344.224 455.808 348.715 456.242 352.798 457.925C356.882 459.607 360.374 462.463 362.834 466.131C365.295 469.799 366.612 474.114 366.62 478.53C366.628 484.451 364.285 490.134 360.105 494.329C355.925 498.523 350.251 500.887 344.33 500.9Z" fill="white"/>
</g>
<defs>
<clipPath id="clip0_2_2811">
<rect width="1024" height="1024" fill="white"/>
</clipPath>
</defs>
</svg>
